cssgg/cap.svg

<svg
  width="24"
  height="24"
  viewBox="0 0 24 24"
  fill="none"
  xmlns="http://www.w3.org/2000/svg"
>
  <path d="M8 18V20H16V18H8Z" fill="currentColor" />
  <path
    fill-rule="evenodd"
    clip-rule="evenodd"
    d="M13.988 3.2203C13.9959 3.14796 14 3.07446 14 3C14 1.89543 13.1046 1 12 1C10.8954 1 10 1.89543 10 3C10 3.07446 10.0041 3.14796 10.012 3.2203C5.99799 4.12533 3 7.71255 3 12C3 12.3883 3.02459 12.7709 3.0723 13.1462C1.86949 13.5369 1 14.6669 1 16V20C1 21.6569 2.34315 23 4 23H20C21.6569 23 23 21.6569 23 20V16C23 14.6669 22.1305 13.5369 20.9277 13.1462C20.9754 12.7709 21 12.3883 21 12C21 7.71255 18.002 4.12533 13.988 3.2203ZM12 5C8.13401 5 5 8.13401 5 12C5 12.3402 5.02412 12.674 5.07063 13H18.9294C18.9759 12.674 19 12.3402 19 12C19 8.13401 15.866 5 12 5ZM3 16C3 15.4477 3.44772 15 4 15H20C20.5523 15 21 15.4477 21 16V20C21 20.5523 20.5523 21 20 21H4C3.44772 21 3 20.5523 3 20V16Z"
    fill="currentColor"
  />
</svg>

<svg viewBox="0 0 24 24" xmlns="http://www.w3.org/2000/svg"><g><path d="M8 18v2h8v-2H8Z"/><path fill-rule="evenodd" d="M13.988 3.22c0-.08.01-.15.01-.23 0-1.11-.9-2-2-2 -1.11 0-2 .89-2 2 0 .07 0 .14.01.22 -4.02.9-7.02 4.49-7.02 8.77 0 .38.02.77.07 1.14 -1.21.39-2.08 1.52-2.08 2.85v4c0 1.65 1.34 3 3 3h16c1.65 0 3-1.35 3-3v-4c0-1.34-.87-2.47-2.08-2.86 .04-.38.07-.76.07-1.15 0-4.29-3-7.88-7.02-8.78Zm-1.99 1.77c-3.87 0-7 3.13-7 7 0 .34.02.67.07 1h13.85c.04-.33.07-.66.07-1 0-3.87-3.14-7-7-7Zm-9 11c0-.56.44-1 1-1h16c.55 0 1 .44 1 1v4c0 .55-.45 1-1 1h-16c-.56 0-1-.45-1-1v-4Z"/></g></svg>
